client/public/assets/icons/action/quote.svg

<?xml version="1.0"?><svg xmlns="http://www.w3.org/2000/svg" width="52" height="52" viewBox="0 0 52 52"><g fill="#fff"><path d="m35 23h-18c-0.6 0-1 0.4-1 1v3c0 0.6 0.4 1 1 1h18c0.6 0 1-0.4 1-1v-3c0-0.6-0.4-1-1-1z m-2 9h-14c-0.6 0-1 0.4-1 1v3c0 0.6 0.4 1 1 1h14c0.6 0 1-0.4 1-1v-3c0-0.6-0.4-1-1-1z m12.8-19.7l-9.6-9.2c-0.8-0.7-1.8-1.1-2.8-1.1h-14.8c-1 0-2 0.4-2.8 1.1l-9.6 9.2c-0.8 0.8-1.2 1.8-1.2 2.9v30.8c0 2.2 1.8 4 4 4h34c2.2 0 4-1.8 4-4v-30.8c0-1.1-0.4-2.1-1.2-2.9z m-19.8-7.3c2.2 0 4 1.8 4 4s-1.8 4-4 4-4-1.8-4-4 1.8-4 4-4z m15 37.5c0 0.8-0.7 1.5-1.5 1.5h-27c-0.8 0-1.5-0.7-1.5-1.5v-25c0-0.8 0.7-1.5 1.5-1.5h27c0.8 0 1.5 0.7 1.5 1.5v25z"></path></g></svg>

<?xml version="1.0" encoding="utf-8"?>
<!-- Generator: Adobe Illustrator 18.1.1, SVG Export Plug-In . SVG Version: 6.00 Build 0)  -->
<svg version="1.1" id="Layer_1" xmlns="http://www.w3.org/2000/svg" xmlns:xlink="http://www.w3.org/1999/xlink" x="0px" y="0px"
	 width="52px" height="52px" viewBox="0 0 52 52" enable-background="new 0 0 52 52" xml:space="preserve">
<g>
	<path fill="#FFFFFF" d="M35,23H17c-0.6,0-1,0.4-1,1v3c0,0.6,0.4,1,1,1h18c0.6,0,1-0.4,1-1v-3C36,23.4,35.6,23,35,23z"/>
	<path fill="#FFFFFF" d="M33,32H19c-0.6,0-1,0.4-1,1v3c0,0.6,0.4,1,1,1h14c0.6,0,1-0.4,1-1v-3C34,32.4,33.6,32,33,32z"/>
	<path fill="#FFFFFF" d="M45.8,12.3l-9.6-9.2C35.4,2.4,34.4,2,33.4,2H26h-7.4c-1,0-2,0.4-2.8,1.1l-9.6,9.2C5.4,13.1,5,14.1,5,15.2
		V46c0,2.2,1.8,4,4,4h17h17c2.2,0,4-1.8,4-4V15.2C47,14.1,46.6,13.1,45.8,12.3z M26,5c2.2,0,4,1.8,4,4c0,2.2-1.8,4-4,4s-4-1.8-4-4
		C22,6.8,23.8,5,26,5z M41,42.5c0,0.8-0.7,1.5-1.5,1.5H26H12.5c-0.8,0-1.5-0.7-1.5-1.5v-25c0-0.8,0.7-1.5,1.5-1.5h27
		c0.8,0,1.5,0.7,1.5,1.5V42.5z"/>
</g>
</svg>
